X: 31439
T: Paddy Sean Nancy's
R: reel
M: 4/4
K: Gmajor
D3 A B2 Ac|BG G2 AEGE|D3 A BABc|dBAG EGGE|
D3 A B2 Ac|BG G2 AEGE|D3 A BABc|dBAG EGGA||
Bd d2 edgd|BddB AGEG|Bd d2 efge|dBAc BGGA|
Bd d2 edgd|BddB AGEG|Bd d2 efge|dBAc BGGE||

